X: 8
T:Backstep No. 1
M:4/4
L:1/4
R:Polka
N:http://www.lesession.co.uk
Z:Steve Mansfield 1998-2001
K:D
fA de | fA de | f2 g>f | fe e2 |
eA cd | eA cd |e2 f>e | ed de ::
f/d/d/d/ d>d | cB B2 | e/c/c/c/ c>c | BA A2 |
f/d/d/d/ d>d | cB B2 | Be Bc | d4 :|

